icons/lines/theta--theta-.svg

<svg xmlns="http://www.w3.org/2000/svg" width="24" height="24" viewBox="0 0 24 24" fill="none" stroke="currentColor" stroke-width="2" stroke-linecap="round" stroke-linejoin="round">
  <path d="M10 10.5h4" />
  <path d="M10 13.5h4" />
  <path d="M12 15.5v-2" />
  <path d="M12 8.5v2" />
  <path d="M8.9 18A1.9 1.9 0 0 1 7 16.1V7.9C7 6.8 7.8 6 8.9 6h6.3a1.9 1.9 0 0 1 1.9 1.9v8.3a2 2 0 0 1-2 1.8z" />
  <path d="M9 22c-5 0-7-2-7-7V9c0-5 2-7 7-7h6c5 0 7 2 7 7v6c0 5-2 7-7 7z" />
</svg>

<svg xmlns="http://www.w3.org/2000/svg" width="24" height="24" viewBox="0 0 24 24" fill="none" stroke="currentColor" stroke-width="2" stroke-linecap="round" stroke-linejoin="round" >
  <path d="M15.1 18H8.9C7.9 18 7 17.2 7 16.1V7.9C7 6.8 7.8 6 8.9 6H15.2C16.2 6 17.1 6.8 17.1 7.9V16.2C17 17.2 16.2 18 15.1 18Z" stroke-miterlimit="10"/>
  <path d="M12 8.5V10.5" stroke-miterlimit="10"/>
  <path d="M10 10.5H14" stroke-miterlimit="10"/>
  <path d="M12 15.5V13.5" stroke-miterlimit="10"/>
  <path d="M10 13.5H14" stroke-miterlimit="10"/>
  <path d="M15 22H9C4 22 2 20 2 15V9C2 4 4 2 9 2H15C20 2 22 4 22 9V15C22 20 20 22 15 22Z"/>
  </svg>
